!!!OTL: Die Mordwirtin (Band 1), S. 109
!!!id: P0809
**kern
*clefG2
*k[f#]
*G:
{8d
=1
4d
8b
4b
8a
=2
4a
8g
4g}
=3
{8f#
=4
4e
8e
4g}
=5
{16e
16e
=6
4e
8d
4g}
=7
{8d
=8
4e
8e
4g
8e
=9
4.d
4d}
=10
{8g
=11
4f#
8f#
4a
8f#
=12
4f#
8a
4g}
==
*-
!!!minrhy: 16
!!!meters: 6/8 ]  ZZ[5
!!!cut: Die Mordwirtin (Band 1), S. 109
!!!reg: Lothringen
!!!trd: PINCK, Louis: Verklingende Weisen, Bd 1, Metz 1928
!!!rhy1: X_  X__X_X__X_  X__X_X__   (x2)
!!!rhy2: X_  X__X_X__
!!!key: P0809  16  G 6/8 ]  ZZ[5
!!!mod: SECHSTONSKALA DUR ?]  AMBITUS[6
!!!kad: 111-51
!!!akz: -5321_-61_-61_-61-5-5_-72-71_
!!!fot: 'a__b__c__d__e__
!!!for: 'a__aw_aw_aw_a__
!!!fok: '^a_/__/__^__-__
!! PHRAS[AUFTAKTIG]
!!!fkt: Habgier, Mord, Vergeltung
!! LOTH VKL
!! PR[16] 2K[6] 2G[19] 3K[3] 3G[0] 4A[6] 4Ü[0] 5A[0] 6K[0] 6G[0]
!! 7K[0] 7G[0] 8A[0] MEHR[0] SI[34] ABS[32] SR[25] SP[9]
!! ST[9] 2k[13] 2g[28] 3k[3] 3g[3] 4d[3] 4ü[0] 5d[0] 6k[0] 6g[0]
!! 7k[0] 7g[0] 8d[0] mehr[0] si[50] dm[-16] sr[41] sp[9]
!! 1F[3] 2F[66] 3F[9] 4F[6] LF[0] 2P[3] 3P[14] 4P[0] TRI[0] DF[6] AB[35]
!! TF[0] U3K[0] U3[0] U4[0] U4Ü[0] U5[3] U6K[0] U6[0] U7K[0] U7[0]
!! N1[21] N2K[0] N2[21] N3K[0] N3[24] N4[12] N4Ü[0] N5[15] N6K[0] N6[3]
!!!n7k: 0] N7[0] O1[0] O2K[0] O2[0] O3K[0] O3[0] HÖ[0
